; HEADER_BLOCK_START
; BambuStudio 01.08.02.56
; model printing time: 38m 21s; total estimated time: 38m 22s
; total layer number: 150
; model label id: 63
; filament_density: 1.24
; filament_diameter: 1.75
; max_z_height: 30.00
; HEADER_BLOCK_END

; CONFIG_BLOCK_START
; accel_to_decel_enable = 1
; accel_to_decel_factor = 50%
; activate_air_filtration = 0
; additional_cooling_fan_speed = 70
; auxiliary_fan = 0
; bed_custom_model = 
; bed_custom_texture = 
; bed_exclude_area = 0x0
; before_layer_change_gcode = ;BEFORE_LAYER_CHANGE\n;[layer_z]\nG92 E0\n
; best_object_pos = 0.5,0.5
; bottom_shell_layers = 3
; bottom_shell_thickness = 0
; bottom_surface_pattern = monotonic
; bridge_angle = 0
; bridge_flow = 0.95
; bridge_no_support = 0
; bridge_speed = 25
; brim_object_gap = 0.1
; brim_type = auto_brim
; brim_width = 5
; chamber_temperatures = 0
; change_filament_gcode = 
; close_fan_the_first_x_layers = 1
; complete_print_exhaust_fan_speed = 80
; cool_plate_temp = 60
; cool_plate_temp_initial_layer = 60
; curr_bed_type = High Temp Plate
; default_acceleration = 5000
; default_filament_colour = ""
; default_filament_profile = "Voron Generic ABS"
; default_jerk = 9
; default_print_profile = 0.20mm Standard @Voron
; deretraction_speed = 30
; detect_narrow_internal_solid_infill = 1
; detect_overhang_wall = 1
; detect_thin_wall = 0
; different_settings_to_system = initial_layer_line_width;skirt_loops;;machine_start_gcode;print_host
; draft_shield = disabled
; during_print_exhaust_fan_speed = 60
; elefant_foot_compensation = 0
; enable_arc_fitting = 0
; enable_overhang_bridge_fan = 1
; enable_overhang_speed = 1
; enable_pressure_advance = 0
; enable_prime_tower = 0
; enable_support = 0
; enforce_support_layers = 0
; eng_plate_temp = 60
; eng_plate_temp_initial_layer = 60
; ensure_vertical_shell_thickness = 1
; exclude_object = 1
; extruder_clearance_height_to_lid = 140
; extruder_clearance_height_to_rod = 36
; extruder_clearance_max_radius = 68
; extruder_clearance_radius = 65
; extruder_colour = #FCE94F
; extruder_offset = 0x0
; extruder_type = DirectDrive
; fan_cooling_layer_time = 100
; fan_max_speed = 100
; fan_min_speed = 100
; filament_colour = #FFFFFF
; filament_cost = 20
; filament_density = 1.24
; filament_diameter = 1.75
; filament_end_gcode = "; filament end gcode \n"
; filament_flow_ratio = 0.98
; filament_ids = GFL99
; filament_is_support = 0
; filament_max_volumetric_speed = 12
; filament_minimal_purge_on_wipe_tower = 15
; filament_settings_id = "Generic PLA @Voron"
; filament_soluble = 0
; filament_start_gcode = "; filament start gcode\n"
; filament_type = PLA
; filament_vendor = Generic
; filename_format = {input_filename_base}_{filament_type[0]}_{print_time}.gcode
; filter_out_gap_fill = 0
; first_layer_print_sequence = 0
; flush_into_infill = 0
; flush_into_objects = 0
; flush_into_support = 1
; flush_multiplier = 0.75
; flush_volumes_matrix = 0
; flush_volumes_vector = 140,140
; full_fan_speed_layer = 0
; fuzzy_skin = none
; fuzzy_skin_point_distance = 0.8
; fuzzy_skin_thickness = 0.3
; gap_infill_speed = 100
; gcode_add_line_number = 0
; gcode_flavor = klipper
; head_wrap_detect_zone = 
; host_type = octoprint
; hot_plate_temp = 60
; hot_plate_temp_initial_layer = 60
; independent_support_layer_height = 1
; infill_combination = 0
; infill_direction = 45
; infill_jerk = 12
; infill_wall_overlap = 25%
; inherits_group = "0.20mm Standard @Voron";;"Voron 0.1 0.4 nozzle"
; initial_layer_acceleration = 500
; initial_layer_flow_ratio = 1
; initial_layer_infill_speed = 105
; initial_layer_jerk = 9
; initial_layer_line_width = 0.45
; initial_layer_print_height = 0.2
; initial_layer_speed = 50
; inner_wall_acceleration = 5000
; inner_wall_jerk = 7
; inner_wall_line_width = 0.4
; inner_wall_speed = 200
; interface_shells = 0
; internal_bridge_support_thickness = 0
; internal_solid_infill_line_width = 0.4
; internal_solid_infill_pattern = zig-zag
; internal_solid_infill_speed = 200
; ironing_direction = 45
; ironing_flow = 10%
; ironing_pattern = zig-zag
; ironing_spacing = 0.15
; ironing_speed = 30
; ironing_type = no ironing
; is_infill_first = 0
; layer_change_gcode = ;AFTER_LAYER_CHANGE\n;[layer_z]
; layer_height = 0.2
; line_width = 0.4
; machine_end_gcode = PRINT_END
; machine_load_filament_time = 0
; machine_max_acceleration_e = 5000,5000
; machine_max_acceleration_extruding = 20000,20000
; machine_max_acceleration_retracting = 5000,5000
; machine_max_acceleration_travel = 9000,9000
; machine_max_acceleration_x = 20000,20000
; machine_max_acceleration_y = 20000,20000
; machine_max_acceleration_z = 500,200
; machine_max_jerk_e = 2.5,2.5
; machine_max_jerk_x = 12,12
; machine_max_jerk_y = 12,12
; machine_max_jerk_z = 0.2,0.4
; machine_max_speed_e = 25,25
; machine_max_speed_x = 500,200
; machine_max_speed_y = 500,200
; machine_max_speed_z = 12,12
; machine_min_extruding_rate = 0,0
; machine_min_travel_rate = 0,0
; machine_pause_gcode = PAUSE
; machine_start_gcode = PRINT_START EXTRUDER=[nozzle_temperature_initial_layer] BED=[bed_temperature_initial_layer_single]\n; You can use following code instead if your PRINT_START macro support Chamber and print area bedmesh\n; PRINT_START EXTRUDER=[nozzle_temperature_initial_layer] BED=[bed_temperature_initial_layer_single] Chamber=[chamber_temperature] PRINT_MIN={first_layer_print_min[0]},{first_layer_print_min[1]} PRINT_MAX={first_layer_print_max[0]},{first_layer_print_max[1]}
; machine_unload_filament_time = 0
; max_bridge_length = 10
; max_layer_height = 0.32
; max_travel_detour_distance = 0
; min_bead_width = 85%
; min_feature_size = 25%
; min_layer_height = 0.08
; minimum_sparse_infill_area = 15
; mmu_segmented_region_interlocking_depth = 0
; mmu_segmented_region_max_width = 0
; nozzle_diameter = 0.4
; nozzle_temperature = 220
; nozzle_temperature_initial_layer = 220
; nozzle_temperature_range_high = 230
; nozzle_temperature_range_low = 190
; nozzle_type = undefine
; nozzle_volume = 0
; only_one_wall_first_layer = 0
; ooze_prevention = 0
; outer_wall_acceleration = 3000
; outer_wall_jerk = 7
; outer_wall_line_width = 0.4
; outer_wall_speed = 120
; overhang_1_4_speed = 80
; overhang_2_4_speed = 50
; overhang_3_4_speed = 30
; overhang_4_4_speed = 10
; overhang_fan_speed = 100
; overhang_fan_threshold = 50%
; post_process = 
; pressure_advance = 0.02
; prime_tower_brim_width = 3
; prime_tower_width = 35
; prime_volume = 45
; print_compatible_printers = "Voron 2.4 250 0.4 nozzle";"Voron 2.4 300 0.4 nozzle";"Voron 2.4 350 0.4 nozzle";"Voron Trident 250 0.4 nozzle";"Voron Trident 300 0.4 nozzle";"Voron Trident 350 0.4 nozzle";"Voron 0.1 0.4 nozzle"
; print_flow_ratio = 1
; print_host = https://moronv0.thuis.damsteen.nl
; print_host_webui = 
; print_sequence = by layer
; print_settings_id = 0.20mm Standard - SD
; printable_area = 0x0,120x0,120x120,0x120
; printable_height = 120
; printer_model = Voron 0.1
; printer_settings_id = Voron 0.1 0.4 nozzle - Copy
; printer_structure = undefine
; printer_technology = FFF
; printer_variant = 0.4
; printhost_apikey = 
; printhost_authorization_type = key
; printhost_cafile = 
; printhost_password = 
; printhost_port = 
; printhost_ssl_ignore_revoke = 0
; printhost_user = 
; printing_by_object_gcode = 
; raft_contact_distance = 0.1
; raft_expansion = 1.5
; raft_first_layer_density = 90%
; raft_first_layer_expansion = 2
; raft_layers = 0
; reduce_crossing_wall = 0
; reduce_fan_stop_start_freq = 1
; reduce_infill_retraction = 1
; required_nozzle_HRC = 0
; resolution = 0.012
; retract_before_wipe = 70%
; retract_length_toolchange = 2
; retract_lift_above = 0
; retract_lift_below = 119
; retract_restart_extra = 0
; retract_restart_extra_toolchange = 0
; retract_when_changing_layer = 1
; retraction_length = 0.8
; retraction_minimum_travel = 1
; retraction_speed = 30
; scan_first_layer = 0
; seam_gap = 15%
; seam_position = aligned
; silent_mode = 0
; single_extruder_multi_material = 1
; skirt_distance = 2
; skirt_height = 1
; skirt_loops = 4
; slice_closing_radius = 0.049
; slicing_mode = regular
; slow_down_for_layer_cooling = 1
; slow_down_layer_time = 8
; slow_down_min_speed = 10
; small_perimeter_speed = 50%
; small_perimeter_threshold = 0
; solid_infill_filament = 1
; sparse_infill_acceleration = 100%
; sparse_infill_anchor = 400%
; sparse_infill_anchor_max = 20
; sparse_infill_density = 15%
; sparse_infill_filament = 1
; sparse_infill_line_width = 0.45
; sparse_infill_pattern = grid
; sparse_infill_speed = 200
; spiral_mode = 0
; standby_temperature_delta = -5
; start_end_points = 30x-3,54x245
; support_air_filtration = 0
; support_angle = 0
; support_base_pattern = default
; support_base_pattern_spacing = 2.5
; support_bottom_interface_spacing = 0.5
; support_bottom_z_distance = 0.2
; support_chamber_temp_control = 0
; support_critical_regions_only = 0
; support_expansion = 0
; support_filament = 0
; support_interface_bottom_layers = 0
; support_interface_filament = 0
; support_interface_loop_pattern = 0
; support_interface_not_for_body = 1
; support_interface_pattern = auto
; support_interface_spacing = 0.5
; support_interface_speed = 80
; support_interface_top_layers = 3
; support_line_width = 0.4
; support_object_xy_distance = 0.35
; support_on_build_plate_only = 0
; support_remove_small_overhang = 1
; support_speed = 150
; support_style = default
; support_threshold_angle = 30
; support_top_z_distance = 0.2
; support_type = normal(auto)
; temperature_vitrification = 60
; template_custom_gcode = 
; textured_plate_temp = 60
; textured_plate_temp_initial_layer = 60
; thick_bridges = 0
; thumbnail_size = 50x50
; time_lapse_gcode = 
; timelapse_type = 0
; top_area_threshold = 100%
; top_one_wall_type = all top
; top_shell_layers = 4
; top_shell_thickness = 0.8
; top_solid_infill_flow_ratio = 1
; top_surface_acceleration = 3000
; top_surface_jerk = 9
; top_surface_line_width = 0.4
; top_surface_pattern = monotonic
; top_surface_speed = 100
; travel_jerk = 12
; travel_speed = 350
; travel_speed_z = 0
; tree_support_branch_angle = 40
; tree_support_branch_diameter = 5
; tree_support_branch_distance = 5
; tree_support_brim_width = 0
; tree_support_wall_count = 0
; upward_compatible_machine = 
; use_firmware_retraction = 0
; use_relative_e_distances = 1
; wall_distribution_count = 1
; wall_filament = 1
; wall_generator = arachne
; wall_loops = 3
; wall_sequence = inner wall/outer wall
; wall_transition_angle = 10
; wall_transition_filter_deviation = 25%
; wall_transition_length = 100%
; wipe = 1
; wipe_distance = 2
; wipe_speed = 80%
; wipe_tower_no_sparse_layers = 0
; wipe_tower_rotation_angle = 0
; wipe_tower_x = 165
; wipe_tower_y = 250
; xy_contour_compensation = 0
; xy_hole_compensation = 0
; z_hop = 0.4
; z_hop_types = Normal Lift
; CONFIG_BLOCK_END

; THUMBNAIL_BLOCK_START
; THUMBNAIL_BLOCK_END

; EXECUTABLE_BLOCK_START
EXCLUDE_OBJECT_DEFINE NAME=Voron_Design_Cube_v7.stl_id_0_copy_0 CENTER=60,60 POLYGON=[[45,45],[75,45],[75,75],[45,75],[45,45]]
M73 P0 R38
M106 S0
M106 P2 S0
; FEATURE: Custom
PRINT_START EXTRUDER=220 BED=60
; You can use following code instead if your PRINT_START macro support Chamber and print area bedmesh
; PRINT_START EXTRUDER=220 BED=60 Chamber=0 PRINT_MIN=41.2681,41.2681 PRINT_MAX=78.7319,78.7319
M109 S220 ; set nozzle temperature and wait for it to be reached
G90
G21
M83 ; use relative distances for extrusion
; filament start gcode
; CHANGE_LAYER
; Z_HEIGHT: 0.2
; LAYER_HEIGHT: 0.2
;BEFORE_LAYER_CHANGE
;0.2
G92 E0

G1 E-.8 F1800
;AFTER_LAYER_CHANGE
;0.2
M106 S0
M106 P2 S0
SET_VELOCITY_LIMIT ACCEL_TO_DECEL=250
M204 S500
SET_VELOCITY_LIMIT SQUARE_CORNER_VELOCITY=9
G1 Z.4 F21000
G1 X45.439 Y45.439
G1 Z.4
G1 Z.2
G1 E.8 F1800
; FEATURE: Skirt
; LINE_WIDTH: 0.45
G1 F3000
G1 X48.344 Y42.534 E.13627
G1 X49.786 Y41.65 E.05612
G1 X50.91 Y41.472 E.03773
G1 X69.09 Y41.472 E.60309
G1 X70.736 Y41.866 E.05612
G1 X71.656 Y42.534 E.03773
G1 X77.466 Y48.344 E.27254
G1 X78.35 Y49.786 E.05612
G1 X78.528 Y50.91 E.03773
G1 X78.528 Y69.09 E.60309
G1 X78.134 Y70.736 E.05612
G1 X77.466 Y71.656 E.03773
G1 X71.656 Y77.466 E.27254
G1 X70.214 Y78.35 E.05612
G1 X69.09 Y78.528 E.03773
G1 X50.91 Y78.528 E.60309
G1 X49.264 Y78.134 E.05612
G1 X48.344 Y77.466 E.03773
G1 X42.534 Y71.656 E.27254
G1 X41.65 Y70.214 E.05612
G1 X41.472 Y69.09 E.03773
G1 X41.472 Y50.91 E.60309
G1 X41.866 Y49.264 E.05612
G1 X42.534 Y48.344 E.03773
G1 X45.397 Y45.482 E.13428
G1 X45.685 Y45.769 F21000
G1 F3000
G1 X48.632 Y42.822 E.13826
G1 X50.002 Y42.009 E.05284
G1 X50.91 Y41.879 E.03043
G1 X69.09 Y41.879 E.60309
G1 X70.634 Y42.273 E.05284
G1 X71.368 Y42.822 E.03043
G1 X77.178 Y48.632 E.27254
G1 X77.991 Y50.002 E.05284
G1 X78.121 Y50.91 E.03043
G1 X78.121 Y69.09 E.60309
G1 X77.727 Y70.634 E.05284
G1 X77.178 Y71.368 E.03043
G1 X71.368 Y77.178 E.27254
G1 X69.998 Y77.991 E.05284
G1 X69.09 Y78.121 E.03043
G1 X50.91 Y78.121 E.60309
G1 X49.366 Y77.727 E.05284
G1 X48.632 Y77.178 E.03043
G1 X42.822 Y71.368 E.27254
G1 X42.009 Y69.998 E.05284
G1 X41.879 Y69.09 E.03043
G1 X41.879 Y50.91 E.60309
G1 X42.273 Y49.366 E.05284
G1 X42.822 Y48.632 E.03043
G1 X45.642 Y45.812 E.13229
G1 X45.93 Y46.1 F21000
G1 F3000
G1 X48.92 Y43.11 E.14025
G1 X50.91 Y42.286 E.07145
G1 X69.09 Y42.286 E.60309
G1 X71.08 Y43.11 E.07145
G1 X76.89 Y48.92 E.27254
G1 X77.714 Y50.91 E.07145
G1 X77.714 Y69.09 E.60309
G1 X76.89 Y71.08 E.07145
G1 X71.08 Y76.89 E.27254
G1 X69.09 Y77.714 E.07145
G1 X50.91 Y77.714 E.60309
G1 X48.92 Y76.89 E.07145
G1 X43.11 Y71.08 E.27254
G1 X42.286 Y69.09 E.07145
G1 X42.286 Y50.91 E.60309
G1 X43.11 Y48.92 E.07145
G1 X45.888 Y46.142 E.1303
G1 X46.175 Y46.43 F21000
G1 F3000
G1 X49.208 Y43.398 E.14224
G1 X50.91 Y42.693 E.06111
G1 X69.09 Y42.693 E.60309
G1 X70.792 Y43.398 E.06111
G1 X76.602 Y49.208 E.27254
G1 X77.307 Y50.91 E.06111
G1 X77.307 Y69.09 E.60309
G1 X76.602 Y70.792 E.06111
G1 X70.792 Y76.602 E.27254
G1 X69.09 Y77.307 E.06111
G1 X50.91 Y77.307 E.60309
G1 X49.208 Y76.602 E.06111
G1 X43.398 Y70.792 E.27254
G1 X42.693 Y69.09 E.06111
G1 X42.693 Y50.91 E.60309
G1 X43.398 Y49.208 E.06111
G1 X46.133 Y46.472 E.12831
EXCLUDE_OBJECT_START NAME=Voron_Design_Cube_v7.stl_id_0_copy_0
G1 E-.56 F1800
; WIPE_START
G1 F16800
G1 X47.547 Y45.058 E-.228
; WIPE_END
G1 E-.012 F1800
; start printing object, unique label id: 63
G1 Z.6 F21000
G1 X73.861 Y68.66 Z.6
G1 Z.2
G1 E.8 F1800
; FEATURE: Inner wall
; LINE_WIDTH: 0.449999
G1 F3000
G1 X68.66 Y73.861 E.24399
G1 X51.34 Y73.861 E.57453
G1 X46.139 Y68.66 E.24399
G1 X46.139 Y51.34 E.57453
G1 X51.34 Y46.139 E.24399
G1 X68.66 Y46.139 E.57453
G1 X73.861 Y51.34 E.24399
G1 X73.861 Y52.857 E.05033
G1 X73.861 Y68.6 E.52221
G1 X74.268 Y68.829 F21000
G1 F3000
G1 X68.829 Y74.268 E.25517
G1 X51.171 Y74.268 E.58572
G1 X45.732 Y68.829 E.25517
G1 X45.732 Y51.171 E.58572
G1 X51.171 Y45.732 E.25517
G1 X68.829 Y45.732 E.58572
G1 X74.268 Y51.171 E.25517
G1 X74.268 Y52.857 E.05592
G1 X74.268 Y68.769 E.5278
G1 X74.675 Y68.974 F21000
; FEATURE: Outer wall
G1 F3000
G1 X74.675 Y68.997 E.00076
G1 X68.997 Y74.675 E.26636
G1 X51.003 Y74.675 E.5969
G1 X45.325 Y68.997 E.26636
G1 X45.325 Y51.003 E.5969
G1 X51.003 Y45.325 E.26636
G1 X68.997 Y45.325 E.5969
G1 X74.675 Y51.003 E.26636
G1 X74.675 Y52.857 E.06151
G1 X74.675 Y68.914 E.53265
G1 E-.56 F1800
; WIPE_START
G1 F16800
G1 X74.675 Y68.997 E-.00944
G1 X73.319 Y70.353 E-.21856
; WIPE_END
G1 E-.012 F1800
G1 Z.6 F21000
G1 X64.617 Y52.531 Z.6
G1 Z.2
G1 E.8 F1800
; FEATURE: Inner wall
G1 F3000
G1 X65.629 Y53.254 E.04127
G1 X66.314 Y53.888 E.03097
G1 X67.167 Y54.918 E.04434
G1 X67.667 Y55.706 E.03097
G1 X68.069 Y56.521 E.03016
G1 X68.385 Y57.373 E.03013
G1 X68.612 Y58.253 E.03013
G1 X68.746 Y59.151 E.03013
G1 X68.787 Y60.058 E.03013
G1 X68.755 Y60.754 E.02311
G1 X68.633 Y61.641 E.02971
G1 X68.417 Y62.524 E.03012
G1 X68.112 Y63.379 E.03013
G1 X67.72 Y64.199 E.03013
G1 X67.245 Y64.973 E.03013
G1 X66.693 Y65.694 E.03014
G1 X66.069 Y66.355 E.03014
G1 X65.381 Y66.948 E.03013
G1 X64.635 Y67.466 E.03013
G1 X63.839 Y67.905 E.03013
G1 X62.928 Y68.285 E.03274
G1 X61.716 Y68.617 E.0417
G1 X60.792 Y68.752 E.03097
